X: 15439
T: Glen Of Aherlow, The
R: reel
M: 4/4
K: Edorian
B2AF BFAF|~E3F EDFA|B2AF BFAF|DFBA FE~E2|
B2AF BFAF|~E3F EDBA|BEEF DEFA|dBAF FE~E2:|

